X: 1
T:Rovl\aaten
C:anon.
O:Sweden
A:Leksand
Z:Transcribed by Frank Nordberg - http://www.musicaviva.com
V:1 Program 1 110
m: Tn = (3n/4o/4n/4-n/
M:3/4
L:1/4
Q:1/4=168
K:Dm
(A/B/)|AGB|AGF|TEDC|D2 (A/B/)|A>GA/B/|c>BA/G/|TBAG|A2|:A|
dAd|TcAF|TBGE|F2E|D>EF/G/|AATG|FEC|D2:|
